icon-themes/breeze_svg/cmd/lc_arrowshapes.up-down-arrow-callout.svg

<svg viewBox="0 0 24 24" xmlns="http://www.w3.org/2000/svg"><path d="m12 4-4 4h2v2h-6v4h6v2h-2l4 4 4-4h-2v-2h6v-4h-6v-2h2z" fill="#4d4d4d"/></svg>

<svg xmlns="http://www.w3.org/2000/svg" viewBox="0 0 24 24">
 <path 
     style="fill:#4d4d4d" 
     d="M 12 4 L 8 8 L 10 8 L 10 10 L 4 10 L 4 14 L 10 14 L 10 16 L 8 16 L 12 20 L 16 16 L 14 16 L 14 14 L 20 14 L 20 10 L 14 10 L 14 8 L 16 8 L 12 4 z "
     />
 </svg>
